X: 10014
T: Dhow, The
R: hornpipe
M: 4/4
K: Gminor
|:D=E>^F|B3 A G3 D|G>d^c>d e>d=c>B|A3 G ^F3 E|D>d^c>d e>d (3=cBA|
B>AB>A G>^FG>E|D>d (3^ccd e>d (3=ccB|A>ed>c A>D (3^FGA|G>BA>^F G:|
|:g^f>g|e>cG>c e>g^f>g|d>BG>B d>D^F>A|^F>D (3FGA d>cB>A|G>D (3GAB d>g^f>g|
e>cG>c e2 (3bag|d>BG>B d>DG>D|^F>D (3FGA d>cB>A|G>BA>^F G:|

